rospo-icon-theme-classic-common/48x48/apps/lightworks.svg

<svg height="48" width="48" xmlns="http://www.w3.org/2000/svg"><path d="m4 42v1c0 1.108.892 2 2 2h36c1.108 0 2-.892 2-2v-1c0 1.108-.892 2-2 2h-36c-1.108 0-2-.892-2-2z" opacity=".2"/><path d="m13.9 4v40h28.1c1.108 0 2-.892 2-2v-4.955519l-1.383455-1.815909.394987-28.0753595c.015587-1.1078903-.656916-1.2055054-1.505766-1.9176277l-1.472817-1.2355848zm-8.6675781.1523438c-.1113733.0461422-.2163615.1033771-.3164063.1679687.0995881-.0645731.2054503-.1218217.3164063-.1679687zm-.3300781.1757812c-.1043847.0685634-.2015762.1479825-.2910157.234375.0894632-.0870311.1864155-.1653738.2910157-.234375zm-.2910157.234375c-.1798965.173768-.3250667.3821963-.4296875.6132812.1038541-.2312697.2507611-.4392191.4296875-.6132812zm-.4296875.6132812c-.1047597.231392-.1643981.4848987-.1738281.7539063.0094156-.2685952.069974-.5226365.1738281-.7539063zm-.1738281.7539063c-.0008378.0238988-.0078125.0462022-.0078125.0703125v.1425781c0-.08605.007-.1320687.00781-.2128906z" fill="#4f4f4f"/><path d="m13 37h12v2h-12z" opacity=".2"/><path d="m13 11h12v2h-12z" opacity=".2"/><path d="m6 4c-1.0838897 0-1.9545251.8553068-1.9921875 1.9296875-.0008172.0808219-.0078125.1268409-.0078125.2128906v35.7148439.142578c0 1.108.892 2 2 2h .140625 7.859375v-6h11.080078v-2h-11.080078v-24h11.080078v-2h-11.080078v-6h-7.859375z" fill="#858585"/><path d="m4 7v-1c0-1.108.892-2 2-2h36c1.108 0 2 .892 2 2v1c0-1.108-.892-2-2-2h-36c-1.108 0-2 .892-2 2z" fill="#fff" opacity=".1"/><path d="m6 7v4h6v-4zm0 8v4h6v-4zm0 8v4h6v-4zm0 8v4h6v-4zm0 8v4h6v-4z" opacity=".2"/><path d="m6 6v4h6v-4zm0 8v4h6v-4zm0 8v4h6v-4zm0 8v4h6v-4zm0 8v4h6v-4z" fill="#fff"/><path d="m43.999476 24.850892c-4.064053 2.182745-8.103152 3.572579-11.59583 4.464227-.144783.04348-.306717.09961-.446423.139507-4.584018 1.309224-7.820767 5.823027-7.820768 5.823027l-.253902 2.268385c.411344.178884 4.263549 1.757842 9.376272.0056 5.130004-1.758193 10.224953-8.676277 10.740651-9.388828z" fill-rule="evenodd"/><path d="m37.803966 31.135687-.414336 2.745499-2.032618-1.436922-.09626 3.191922-2.66877-1.883346-.38225 3.54348-2.890587-2.490201-.827277 2.905933-2.287916-2.650635-1.365775 2.26699-1.176045-2.713413-1.008636 2.039594c.12522.133661.254935.248197.382249.373879.31786.246379.690561.458979.690561.458979s4.130188 1.915691 9.53252.06417c2.740462-.939231 5.447041-3.34078 7.47479-5.492394-.07796-.03059-.144062-.06596-.228792-.09347z" fill-rule="evenodd"/><ellipse cx="36.944" cy="18.8" opacity=".2" rx="2.741" ry="2.754"/><ellipse cx="35.686" cy="17.536" opacity=".2" rx=".674" ry=".677"/><path d="m44 23.937133c-4.064053 2.182745-8.103676 3.572578-11.596354 4.464227-.144783.04348-.306717.09961-.446423.139507-4.584018 1.309224-7.820767 6.022692-7.820768 6.022692l-.253902 2.268385c.411344.178884 4.263549 1.757842 9.376272.0056 5.130004-1.758192 10.225477-8.024993 10.741175-8.737544z" fill="#3f3f3f" fill-rule="evenodd"/><path d="m38.985591 27.170427s-.05553.0083-.05581.0084c-9.929781 1.820875-16.951508 2.605005-16.951508 2.605005s-3.190381 1.028574-6.036473.42387l2.845945 4.13769.898426-2.573906 1.978211 2.84455 1.392281-2.935229 3.145885 3.115193 1.124427-3.565802 2.965921 2.84455 1.438318-3.882482 2.247459 2.437189 1.392282-3.565802 2.472066 1.714543 1.078389-3.41522z" fill-rule="evenodd" opacity=".2"/><path d="m39.677734 5c-1.564701.5075281-19.61047 6.389501-26.236328 9.933594-6.9209748 3.701945-6.7425387 5.054605-5.9335935 7.041015.8089458 1.986409 2.9662475 3.34265 4.2246095 6.322266 1.258355 2.979611 10.246094 2.703125 10.246094 2.703125s10.937449.08979 22.021484-5.863281v-18.136719c0-1.108-.892-2-2-2zm4.322266 23.449219c-.515698.712551-5.61023 7.528916-10.740234 9.287109-1.923771.437289-4.263884 1.228235-6.324219 1.263672-1.789331.03078-3.368613-.534567-4.283203-2.058594 0 0-.71881.11226-.583985 1.105469.689333 3.521584 6.627361 3.933665 8.080079 3.953125 3.282549-.00955 7.786786-.776121 13.851562-3.566406z" opacity=".2"/><path d="m38.985591 26.170725s-.05553.0083-.05581.0084c-9.929781 1.820875-16.951508 2.605005-16.951508 2.605005s-3.190381 1.028574-6.036473.42387l2.845945 4.13769.898426-2.573906 1.978211 2.84455 1.392281-2.935229 3.145885 3.115193 1.124427-3.565802 2.965921 2.84455 1.438318-3.882482 2.247459 2.437189 1.392282-3.565802 2.472066 1.714543 1.078389-3.41522z" fill="#fff" fill-rule="evenodd"/><path d="m37.803966 30.421592-.414336 2.7455-2.032618-1.436923-.09626 3.191923-2.66877-1.883346-.38225 3.54348-2.890587-2.490202-.827277 2.905934-2.287916-2.650636-1.365775 2.266991-1.176045-2.713413-1.008636 2.039594c.12522.133661-.321671.824803-.194357.950484.31786.24638.113954.870841.113954.870841s5.860007 2.162809 11.262339.311287c2.740462-.939231 5.447041-4.493993 7.47479-6.645608-.07796-.03059-.720668-.148332-.805398-.175842z" fill="#fff" fill-rule="evenodd"/><path d="m39.677734 4c-1.564701.5075281-19.61047 6.389501-26.236328 9.933594-6.9209748 3.701945-6.7425387 5.054605-5.9335935 7.041015.8089458 1.986409 2.9662475 3.34265 4.2246095 6.322266 1.258355 2.979611 10.246094 2.703125 10.246094 2.703125s10.937449.08979 22.021484-5.863281v-18.136719c0-1.108-.892-2-2-2zm4.322266 24s-8.651318 9.744524-17.064453 10c-1.789331.03078-3.368613-.534567-4.283203-2.058594 0 0-.71881.11226-.583985 1.105469.689333 3.521584 6.627361 3.933665 8.080079 3.953125 3.282549-.00955 7.786786-.776121 13.851562-3.566406z" fill="#e7464c"/><circle cx="37" cy="18" fill="#3f3f3f" r="3"/><circle cx="36" cy="17" fill="#f8fcf9" r="1"/><path d="m39.677734 4c-1.564701.5075281-19.61047 6.389501-26.236328 9.933594-5.6558296 3.025234-6.5499553 4.482635-6.253906 5.998047.3114738-1.225834 1.8288896-2.63116 6.253906-4.998047 6.625858-3.544093 24.671627-9.4260659 26.236328-9.933594h2.322266c1.108 0 2 .892 2 2v-1c0-1.108-.892-2-2-2z" fill="#fff" opacity=".1"/></svg>

<svg xmlns="http://www.w3.org/2000/svg" width="48" height="48" version="1">
 <path opacity=".2" d="m4 42v1c0 1.108 0.892 2 2 2h36c1.108 0 2-0.892 2-2v-1c0 1.108-0.892 2-2 2h-36c-1.108 0-2-0.892-2-2z"/>
 <path style="fill:#4f4f4f" d="m 13.9,4 0,40 28.1,0 c 1.108,0 2,-0.892 2,-2 L 44,37.044481 42.616545,35.228572 43.011532,7.1532125 C 43.027119,6.0453222 42.354616,5.9477071 41.505766,5.2355848 L 40.032949,4 Z M 5.2324219,4.1523438 C 5.1210486,4.198486 5.0160604,4.2557209 4.9160156,4.3203125 5.0156037,4.2557394 5.1214659,4.1984908 5.2324219,4.1523438 Z M 4.9023438,4.328125 C 4.7979591,4.3966884 4.7007676,4.4761075 4.6113281,4.5625 4.7007913,4.4754689 4.7977436,4.3971262 4.9023438,4.328125 Z M 4.6113281,4.5625 C 4.4314316,4.736268 4.2862614,4.9446963 4.1816406,5.1757812 4.2854947,4.9445115 4.4324017,4.7365621 4.6113281,4.5625 Z M 4.1816406,5.1757812 C 4.0768809,5.4071732 4.0172425,5.6606799 4.0078125,5.9296875 4.0172281,5.6610923 4.0777865,5.407051 4.1816406,5.1757812 Z M 4.0078125,5.9296875 C 4.0069747,5.9535863 4,5.9758897 4,6 l 0,0.1425781 c 0,-0.08605 0.007,-0.1320687 0.00781,-0.2128906 z"/>
 <rect style="opacity:0.2" width="12" height="2" x="13" y="37"/>
 <rect style="opacity:0.2" width="12" height="2" x="13" y="11"/>
 <path style="fill:#858585" d="M 6 4 C 4.9161103 4 4.0454749 4.8553068 4.0078125 5.9296875 C 4.0069953 6.0105094 4 6.0565284 4 6.1425781 L 4 41.857422 L 4 42 C 4 43.108 4.892 44 6 44 L 6.140625 44 L 14 44 L 14 38 L 25.080078 38 L 25.080078 36 L 14 36 L 14 12 L 25.080078 12 L 25.080078 10 L 14 10 L 14 4 L 6.140625 4 L 6 4 z"/>
 <path fill="#fff" style="opacity:0.1" d="m4 7v-1c0-1.108 0.892-2 2-2h36c1.108 0 2 0.892 2 2v1c0-1.108-0.892-2-2-2h-36c-1.108 0-2 0.892-2 2z"/>
 <path style="opacity:0.2" d="m 6,7 0,4 6,0 0,-4 -6,0 z m 0,8 0,4 6,0 0,-4 -6,0 z m 0,8 0,4 6,0 0,-4 -6,0 z m 0,8 0,4 6,0 0,-4 -6,0 z m 0,8 0,4 6,0 0,-4 -6,0 z"/>
 <path style="fill:#ffffff" d="M 6 6 L 6 10 L 12 10 L 12 6 L 6 6 z M 6 14 L 6 18 L 12 18 L 12 14 L 6 14 z M 6 22 L 6 26 L 12 26 L 12 22 L 6 22 z M 6 30 L 6 34 L 12 34 L 12 30 L 6 30 z M 6 38 L 6 42 L 12 42 L 12 38 L 6 38 z"/>
 <path style="fill-rule:evenodd" d="m 43.999476,24.850892 c -4.064053,2.182745 -8.103152,3.572579 -11.59583,4.464227 -0.144783,0.04348 -0.306717,0.09961 -0.446423,0.139507 -4.584018,1.309224 -7.820767,5.823027 -7.820768,5.823027 l -0.253902,2.268385 c 0.411344,0.178884 4.263549,1.757842 9.376272,0.0056 5.130004,-1.758193 10.224953,-8.676277 10.740651,-9.388828 z"/>
 <path style="fill-rule:evenodd" d="m 37.803966,31.135687 -0.414336,2.745499 -2.032618,-1.436922 -0.09626,3.191922 -2.66877,-1.883346 -0.38225,3.54348 -2.890587,-2.490201 -0.827277,2.905933 -2.287916,-2.650635 -1.365775,2.26699 -1.176045,-2.713413 -1.008636,2.039594 c 0.12522,0.133661 0.254935,0.248197 0.382249,0.373879 0.31786,0.246379 0.690561,0.458979 0.690561,0.458979 0,0 4.130188,1.915691 9.53252,0.06417 2.740462,-0.939231 5.447041,-3.34078 7.47479,-5.492394 -0.07796,-0.03059 -0.144062,-0.06596 -0.228792,-0.09347 z"/>
 <ellipse style="opacity:0.2" cx="36.944" cy="18.8" rx="2.741" ry="2.754"/>
 <ellipse style="opacity:0.2" cx="35.686" cy="17.536" rx=".674" ry=".677"/>
 <path style="fill:#3f3f3f;fill-rule:evenodd" d="m 44,23.937133 c -4.064053,2.182745 -8.103676,3.572578 -11.596354,4.464227 -0.144783,0.04348 -0.306717,0.09961 -0.446423,0.139507 -4.584018,1.309224 -7.820767,6.022692 -7.820768,6.022692 l -0.253902,2.268385 c 0.411344,0.178884 4.263549,1.757842 9.376272,0.0056 C 38.388829,35.079352 43.484302,28.812551 44,28.1 Z"/>
 <path style="opacity:0.2;fill-rule:evenodd" d="m 38.985591,27.170427 c 0,0 -0.05553,0.0083 -0.05581,0.0084 C 29,28.999702 21.978273,29.783832 21.978273,29.783832 c 0,0 -3.190381,1.028574 -6.036473,0.42387 l 2.845945,4.13769 0.898426,-2.573906 1.978211,2.84455 1.392281,-2.935229 3.145885,3.115193 1.124427,-3.565802 2.965921,2.84455 1.438318,-3.882482 2.247459,2.437189 1.392282,-3.565802 2.472066,1.714543 1.078389,-3.41522 z"/>
 <path style="opacity:0.2" d="m 39.677734,5 c -1.564701,0.5075281 -19.61047,6.389501 -26.236328,9.933594 -6.9209748,3.701945 -6.7425387,5.054605 -5.9335935,7.041015 0.8089458,1.986409 2.9662475,3.34265 4.2246095,6.322266 C 12.990777,31.276486 21.978516,31 21.978516,31 c 0,0 10.937449,0.08979 22.021484,-5.863281 L 44,7 C 44,5.892 43.108,5 42,5 L 39.677734,5 Z M 44,28.449219 C 43.484302,29.16177 38.38977,35.978135 33.259766,37.736328 31.335995,38.173617 28.995882,38.964563 26.935547,39 c -1.789331,0.03078 -3.368613,-0.534567 -4.283203,-2.058594 0,0 -0.71881,0.11226 -0.583985,1.105469 C 22.757692,41.568459 28.69572,41.98054 30.148438,42 33.430987,41.99045 37.935224,41.223879 44,38.433594 l 0,-9.984375 z"/>
 <path style="fill:#ffffff;fill-rule:evenodd" d="m 38.985591,26.170725 c 0,0 -0.05553,0.0083 -0.05581,0.0084 C 29,28 21.978273,28.78413 21.978273,28.78413 c 0,0 -3.190381,1.028574 -6.036473,0.42387 l 2.845945,4.13769 0.898426,-2.573906 1.978211,2.84455 1.392281,-2.935229 3.145885,3.115193 1.124427,-3.565802 2.965921,2.84455 1.438318,-3.882482 2.247459,2.437189 1.392282,-3.565802 2.472066,1.714543 1.078389,-3.41522 z"/>
 <path style="fill:#ffffff;fill-rule:evenodd" d="m 37.803966,30.421592 -0.414336,2.7455 -2.032618,-1.436923 -0.09626,3.191923 -2.66877,-1.883346 -0.38225,3.54348 -2.890587,-2.490202 -0.827277,2.905934 -2.287916,-2.650636 -1.365775,2.266991 -1.176045,-2.713413 -1.008636,2.039594 c 0.12522,0.133661 -0.321671,0.824803 -0.194357,0.950484 0.31786,0.24638 0.113954,0.870841 0.113954,0.870841 0,0 5.860007,2.162809 11.262339,0.311287 2.740462,-0.939231 5.447041,-4.493993 7.47479,-6.645608 -0.07796,-0.03059 -0.720668,-0.148332 -0.805398,-0.175842 z"/>
 <path style="fill:#e7464c" d="m 39.677734,4 c -1.564701,0.5075281 -19.61047,6.389501 -26.236328,9.933594 -6.9209748,3.701945 -6.7425387,5.054605 -5.9335935,7.041015 0.8089458,1.986409 2.9662475,3.34265 4.2246095,6.322266 C 12.990777,30.276486 21.978516,30 21.978516,30 c 0,0 10.937449,0.08979 22.021484,-5.863281 L 44,6 C 44,4.892 43.108,4 42,4 Z M 44,28 c 0,0 -8.651318,9.744524 -17.064453,10 -1.789331,0.03078 -3.368613,-0.534567 -4.283203,-2.058594 0,0 -0.71881,0.11226 -0.583985,1.105469 C 22.757692,40.568459 28.69572,40.98054 30.148438,41 33.430987,40.99045 37.935224,40.223879 44,37.433594 Z"/>
 <circle style="fill:#3f3f3f" cx="37" cy="18" r="3"/>
 <circle style="fill:#f8fcf9" cx="36" cy="17" r="1"/>
 <path style="opacity:0.1;fill:#ffffff" d="M 39.677734,4 C 38.113033,4.5075281 20.067264,10.389501 13.441406,13.933594 7.7855764,16.958828 6.8914507,18.416229 7.1875,19.931641 7.4989738,18.705807 9.0163896,17.300481 13.441406,14.933594 20.067264,11.389501 38.113033,5.5075281 39.677734,5 L 42,5 c 1.108,0 2,0.892 2,2 L 44,6 C 44,4.892 43.108,4 42,4 Z"/>
</svg>
